X: 204
T: No_61_Calusa_Hunting_Dance_Song_(e).krn
N: Derived from No_61_Calusa_Hunting_Dance_Song_(e).krn
%%abc-version 2.0
%%abcx-abcm2ps-target-version 5.9.1 (29 Sep 2008)
%%abc-creator hum2abc beta
%%abcx-conversion-date 2019/03/15 08:38:45
%%humdrum-veritas 3443737955
%%humdrum-veritas-data 3336874022
%%linebreak <none>
%%barnumbers 0
L: 1/8
M: 2/4
K: C clef=bass
[K:clef=bass][M:2/4]CC D3/C/ | 
C3/C/C2 | 
DCC2 | 
D/C/CC2 | 
D/C/CC2 | 
C3/C/ C3/A,/ | 
G,3/G,/G,2 ||  
[M:3/4]CG,G,2-G,F,/D,/ ||  
[M:2/4]G,G, G, z | 
E,C,C,2 | 
E,3/E,/ E,3/C,/ | 
C,3/C,/C,2 | 
E,C,/C,/C,2 | 
E,C,/C,/C,2 | 
E,C,/C,/C,2 |]  



